src/assets/icons/gmail-logo.svg

<svg  viewBox="0 0 34 34" fill="none" xmlns="http://www.w3.org/2000/svg">
<g clip-path="url(#clip0_29182_24132)">
<path d="M2.31818 29.7482H7.72727V16.6119L0 10.8164V27.43C0 28.7128 1.03932 29.7482 2.31818 29.7482Z" fill="#4285F4"/>
<path d="M26.2734 29.7482H31.6825C32.9653 29.7482 34.0007 28.7089 34.0007 27.43V10.8164L26.2734 16.6119" fill="#34A853"/>
<path d="M26.2734 6.56695V16.6124L34.0007 10.8169V7.72604C34.0007 4.85922 30.7282 3.2249 28.4371 4.94422" fill="#FBBC04"/>
<path d="M7.72656 16.6119V6.56641L16.9993 13.521L26.272 6.56641V16.6119L16.9993 23.5664" fill="#EA4335"/>
<path d="M0 7.72604V10.8169L7.72727 16.6124V6.56695L5.56364 4.94422C3.26864 3.2249 0 4.85922 0 7.72604Z" fill="#C5221F"/>
</g>
<defs>
<clipPath id="clip0_29182_24132">
<rect width="34" height="25.5" fill="white" transform="translate(0 4.25)"/>
</clipPath>
</defs>
</svg>

<svg xmlns="http://www.w3.org/2000/svg" fill="none" viewBox="0 0 34 34"><g clip-path="url(#a)"><path fill="#4285F4" d="M2.318 29.748h5.41V16.612L0 10.816V27.43a2.318 2.318 0 0 0 2.318 2.318Z"/><path fill="#34A853" d="M26.273 29.748h5.41A2.318 2.318 0 0 0 34 27.43V10.816l-7.728 5.796"/><path fill="#FBBC04" d="M26.273 6.567v10.045l7.728-5.795V7.726c0-2.867-3.273-4.501-5.564-2.782"/><path fill="#EA4335" d="M7.727 16.612V6.566l9.272 6.955 9.273-6.955v10.046l-9.273 6.954"/><path fill="#C5221F" d="M0 7.726v3.09l7.727 5.796V6.567L5.564 4.944C3.269 3.224 0 4.86 0 7.726Z"/></g><defs><clipPath id="a"><path fill="#fff" d="M0 4.25h34v25.5H0z"/></clipPath></defs></svg>
